X:9
T:Canterbury Revel
M:2/4
L:1/8
B:Thompson's Compleat Collection of 200 Favourite Country Dances, vol. 2 (London, 1765)
Z:Transcribed and edited by Flynn Titford-Mock, 2007
Z:abc's:AK/Fiddler's Companion
K:G
D | DGBG | cABG | ABcA | B2g2 | ecdB | AcBG | AcBA | G2 [G,G] :|
|: d | afga | gbgd | egec | B2g2 | ceac | BdgB | AcBA | G2 [G,G] :|

